assets/icons/gears-filled.svg

<?xml version="1.0" encoding="UTF-8" standalone="no"?>
<svg
   viewBox="0 0 24 24"
   height="24"
   id="svg7384"
   version="1.1"
   width="24"
   sodipodi:docname="gears-filled.svg"
   inkscape:version="1.2 (1:1.2.1+202207142221+cd75a1ee6d)"
   xmlns:inkscape="http://www.inkscape.org/namespaces/inkscape"
   xmlns:sodipodi="http://sodipodi.sourceforge.net/DTD/sodipodi-0.dtd"
   xmlns="http://www.w3.org/2000/svg"
   xmlns:svg="http://www.w3.org/2000/svg"
   xmlns:rdf="http://www.w3.org/1999/02/22-rdf-syntax-ns#"
   xmlns:cc="http://creativecommons.org/ns#"
   xmlns:dc="http://purl.org/dc/elements/1.1/">
  <sodipodi:namedview
     pagecolor="#ffffff"
     bordercolor="#666666"
     borderopacity="1"
     objecttolerance="10"
     gridtolerance="10"
     guidetolerance="10"
     inkscape:pageopacity="0"
     inkscape:pageshadow="2"
     inkscape:window-width="1920"
     inkscape:window-height="1043"
     id="namedview1912"
     showgrid="true"
     inkscape:zoom="8"
     inkscape:cx="-15"
     inkscape:cy="-4"
     inkscape:window-x="0"
     inkscape:window-y="0"
     inkscape:window-maximized="1"
     inkscape:current-layer="svg7384"
     inkscape:snap-global="true"
     inkscape:pagecheckerboard="0"
     inkscape:snap-bbox="true"
     inkscape:bbox-paths="true"
     inkscape:bbox-nodes="true"
     inkscape:snap-bbox-edge-midpoints="true"
     inkscape:snap-bbox-midpoints="true"
     inkscape:object-paths="true"
     inkscape:snap-intersection-paths="true"
     inkscape:snap-smooth-nodes="true"
     inkscape:snap-midpoints="true"
     inkscape:snap-center="true"
     inkscape:showpageshadow="2"
     inkscape:deskcolor="#d1d1d1">
    <inkscape:grid
       type="xygrid"
       id="grid2461" />
  </sodipodi:namedview>
  <metadata
     id="metadata20854">
    <rdf:RDF>
      <cc:Work
         rdf:about="">
        <dc:format>image/svg+xml</dc:format>
        <dc:type
           rdf:resource="http://purl.org/dc/dcmitype/StillImage" />
      </cc:Work>
    </rdf:RDF>
  </metadata>
  <defs
     id="defs7386">
    <linearGradient
       id="linearGradient5606"
       inkscape:swatch="solid">
      <stop
         id="stop5608"
         offset="0"
         style="stop-color:#000000;stop-opacity:1;" />
    </linearGradient>
    <linearGradient
       id="linearGradient4526"
       inkscape:swatch="solid">
      <stop
         id="stop4528"
         offset="0"
         style="stop-color:#ffffff;stop-opacity:1;" />
    </linearGradient>
    <linearGradient
       id="linearGradient3600-4"
       inkscape:swatch="gradient">
      <stop
         id="stop3602-7"
         offset="0"
         style="stop-color:#f4f4f4;stop-opacity:1" />
      <stop
         id="stop3604-6"
         offset="1"
         style="stop-color:#dbdbdb;stop-opacity:1" />
    </linearGradient>
  </defs>
  <g
     id="layer9"
     label="status"
     style="display:inline;fill:#808080;fill-opacity:1"
     transform="translate(-813.00006,167.00006)" />
  <g
     id="layer2"
     style="display:inline;fill:#808080;fill-opacity:1"
     transform="translate(-571.99986,-199.99994)" />
  <g
     id="layer4"
     style="display:inline;fill:#808080;fill-opacity:1"
     transform="translate(-571.99986,-199.99994)" />
  <g
     id="g1812"
     style="display:inline;fill:#808080;fill-opacity:1"
     transform="translate(-571.99986,-199.99994)" />
  <g
     id="g6217"
     style="display:inline;fill:#808080;fill-opacity:1"
     transform="translate(-571.99986,-199.99994)" />
  <g
     id="layer3"
     style="display:inline;fill:#808080;fill-opacity:1"
     transform="translate(-571.99986,-199.99994)" />
  <g
     id="layer1"
     style="display:inline;fill:#808080;fill-opacity:1"
     transform="translate(-571.99986,-199.99994)" />
  <path
     id="path369"
     style="opacity:1;fill:#808080;fill-rule:evenodd;stroke:#ffffff;stroke-width:0;stroke-linecap:square;stroke-linejoin:round;fill-opacity:1"
     d="M 14 9 L 14 10.113281 A 5 5 0 0 0 12.625 10.613281 L 11.910156 9.7617188 L 10.376953 11.046875 L 11.091797 11.898438 A 5 5 0 0 0 10.361328 13.166016 L 9.265625 12.972656 L 8.9179688 14.943359 L 10.009766 15.136719 A 5 5 0 0 0 10.265625 16.578125 L 9.3046875 17.134766 L 10.304688 18.865234 L 11.259766 18.3125 A 5 5 0 0 0 12.386719 19.255859 L 12.007812 20.296875 L 13.886719 20.980469 L 14.265625 19.943359 A 5 5 0 0 0 15 20 A 5 5 0 0 0 15.734375 19.943359 L 16.113281 20.980469 L 17.992188 20.296875 L 17.613281 19.255859 A 5 5 0 0 0 18.740234 18.3125 L 19.695312 18.865234 L 20.695312 17.134766 L 19.734375 16.578125 A 5 5 0 0 0 19.990234 15.136719 L 21.082031 14.943359 L 20.734375 12.972656 L 19.648438 13.164062 A 5 5 0 0 0 18.914062 11.890625 L 19.623047 11.046875 L 18.089844 9.7617188 L 17.382812 10.603516 A 5 5 0 0 0 16 10.101562 L 16 9 L 14 9 z M 15 11 A 4 4 0 0 1 19 15 A 4 4 0 0 1 15 19 A 4 4 0 0 1 11 15 A 4 4 0 0 1 15 11 z M 15 12 A 3 3 0 0 0 12 15 A 3 3 0 0 0 15 18 A 3 3 0 0 0 18 15 A 3 3 0 0 0 15 12 z " />
  <path
     id="path363"
     style="opacity:1;fill:#808080;fill-rule:evenodd;stroke:#ffffff;stroke-width:0;stroke-linecap:square;stroke-linejoin:round;fill-opacity:1"
     d="M 6 2 L 6 3.0351562 A 3.5 3.5 0 0 0 4.6582031 3.5273438 L 3.9902344 2.7304688 L 3.2246094 3.375 L 3.8925781 4.1699219 A 3.5 3.5 0 0 0 3.1816406 5.4082031 L 2.1542969 5.2265625 L 1.9824219 6.2109375 L 3.0078125 6.3925781 A 3.5 3.5 0 0 0 3 6.5 A 3.5 3.5 0 0 0 3.2578125 7.7949219 L 2.3535156 8.3164062 L 2.8535156 9.1835938 L 3.7558594 8.6621094 A 3.5 3.5 0 0 0 4.8476562 9.5761719 L 4.4902344 10.556641 L 5.4316406 10.900391 L 5.7890625 9.9179688 A 3.5 3.5 0 0 0 6.5 10 A 3.5 3.5 0 0 0 7.2109375 9.9179688 L 7.5683594 10.900391 L 8.5097656 10.556641 L 8.1523438 9.5761719 A 3.5 3.5 0 0 0 9.2441406 8.6621094 L 10.146484 9.1835938 L 10.646484 8.3164062 L 9.7421875 7.7949219 A 3.5 3.5 0 0 0 10 6.5 A 3.5 3.5 0 0 0 9.9980469 6.390625 L 11.017578 6.2109375 L 10.845703 5.2265625 L 9.8242188 5.40625 A 3.5 3.5 0 0 0 9.109375 4.1679688 L 9.7753906 3.375 L 9.0097656 2.7304688 L 8.34375 3.5253906 A 3.5 3.5 0 0 0 7 3.0351562 L 7 2 L 6 2 z M 6.5 4 A 2.5 2.5 0 0 1 9 6.5 A 2.5 2.5 0 0 1 6.5 9 A 2.5 2.5 0 0 1 4 6.5 A 2.5 2.5 0 0 1 6.5 4 z M 6.5 5 A 1.5 1.5 0 0 0 5 6.5 A 1.5 1.5 0 0 0 6.5 8 A 1.5 1.5 0 0 0 8 6.5 A 1.5 1.5 0 0 0 6.5 5 z " />
</svg>

<svg height="24" width="24" xmlns="http://www.w3.org/2000/svg"><path style="opacity:1;fill:gray;stroke:#fff;stroke-width:0;stroke-linecap:square;stroke-linejoin:round;fill-opacity:1" d="M14 9v1.113a5 5 0 0 0-1.375.5l-.715-.851-1.533 1.285.715.851a5 5 0 0 0-.73 1.268l-1.096-.193-.348 1.97 1.092.194a5 5 0 0 0 .256 1.441l-.961.557 1 1.73.955-.552a5 5 0 0 0 1.127.943l-.38 1.04 1.88.684.379-1.037A5 5 0 0 0 15 20a5 5 0 0 0 .734-.057l.38 1.037 1.878-.683-.379-1.041a5 5 0 0 0 1.127-.944l.955.553 1-1.73-.96-.557a5 5 0 0 0 .255-1.441l1.092-.194-.348-1.97-1.086.191a5 5 0 0 0-.734-1.273l.709-.844-1.533-1.285-.707.842A5 5 0 0 0 16 10.102V9h-2zm1 2a4 4 0 0 1 4 4 4 4 0 0 1-4 4 4 4 0 0 1-4-4 4 4 0 0 1 4-4zm0 1a3 3 0 0 0-3 3 3 3 0 0 0 3 3 3 3 0 0 0 3-3 3 3 0 0 0-3-3zM6 2v1.035a3.5 3.5 0 0 0-1.342.492L3.99 2.73l-.765.645.668.795a3.5 3.5 0 0 0-.711 1.238l-1.028-.181-.172.984 1.026.182A3.5 3.5 0 0 0 3 6.5a3.5 3.5 0 0 0 .258 1.295l-.904.521.5.868.902-.522a3.5 3.5 0 0 0 1.092.914l-.358.98.942.344.357-.982A3.5 3.5 0 0 0 6.5 10a3.5 3.5 0 0 0 .71-.082l.358.982.942-.343-.358-.98a3.5 3.5 0 0 0 1.092-.915l.902.522.5-.868-.904-.521A3.5 3.5 0 0 0 10 6.5a3.5 3.5 0 0 0-.002-.11l1.02-.18-.172-.983-1.022.18a3.5 3.5 0 0 0-.715-1.239l.666-.793-.765-.645-.666.795A3.5 3.5 0 0 0 7 3.035V2H6zm.5 2A2.5 2.5 0 0 1 9 6.5 2.5 2.5 0 0 1 6.5 9 2.5 2.5 0 0 1 4 6.5 2.5 2.5 0 0 1 6.5 4zm0 1A1.5 1.5 0 0 0 5 6.5 1.5 1.5 0 0 0 6.5 8 1.5 1.5 0 0 0 8 6.5 1.5 1.5 0 0 0 6.5 5z"/></svg>
